public/svgs/palettes.svg

<svg height="16" viewBox="0 0 15 16" width="15" xmlns="http://www.w3.org/2000/svg"><path d="m13.962766 5.46382979c-.8937603-.89537064-2.2243341-1.1938171-3.4148937-.76595745.4885689-1.35969596.0291998-2.87893063-1.13089598-3.74012193-1.16009575-.86119129-2.74726114-.86119129-3.90735689 0-1.16009575.8611913-1.61946485 2.38042597-1.13089603 3.74012193-1.22889538-.43980189-2.6016191-.10777851-3.49368256.84502384-.89206346.95280236-1.13307678 2.34439228-.61339657 3.54169844.51968022 1.19730618 1.70079167 1.97163528 3.0060153 1.97072448.3751633-.0016258.74737955-.0663591 1.10106383-.1914893-.49255694 1.3605897-.03367225 2.8831583 1.12869208 3.7449737s2.75257796.8585162 3.9113563-.0081148c1.15877832-.8666311 1.61134142-2.3910907 1.11314312-3.7496249 1.4398608.5161305 3.0452204-.0333252 3.866855-1.32348269.8216347-1.29015746.6406237-2.97726033-.4360039-4.06375132zm-8.36808515-3.73404256c.66702246-.66702245 1.63922887-.92752438 2.55039849-.68337721.91116963.24414716 1.62287412.95585165 1.86702126 1.86702127.2441472.91116963-.01635474 1.88337604-.6833772 2.5503985l-1.86702127 1.87659574-1.86702128-1.86702127c-.49756066-.49583602-.77723277-1.16936993-.77723277-1.87180852 0-.70243858.27967211-1.37597249.77723277-1.87180851zm-4.18404255 7.91808511c-1.03200869-1.03024607-1.03343756-2.70203387-.00319149-3.73404255 1.03024607-1.03200869 2.70203387-1.03343757 3.73404255-.00319149l1.87978724 1.87021276-1.86382979 1.86702128c-.49638166.49775376-1.17044371.77750446-1.87340426.77750446-.70296054 0-1.37702259-.2797507-1.87340425-.77750446zm7.9180851 4.18404256c-.66702245.6670225-1.63922887.9275244-2.55039849.6833772s-1.62287411-.9558516-1.86702128-1.8670213c-.24414716-.9111696.01635476-1.883376.68337722-2.5503985l1.86702128-1.86702124 1.86702127 1.86702124c1.0281676 1.0323517 1.0281676 2.701691 0 3.7340426zm4.1840426-4.18404256c-1.0319805 1.02605036-2.6988706 1.02605036-3.73085111 0l-1.86702127-1.86702128 1.86702127-1.86702127c1.03112741-1.03112736 2.70291521-1.03112734 3.73404251.00000003 1.0311274 1.03112736 1.0311274 2.70291514 0 3.73404252z" fill="#a9acd3"/></svg>

<?xml version="1.0" encoding="UTF-8"?>
<svg width="15px" height="16px" viewBox="0 0 15 16" version="1.1" xmlns="http://www.w3.org/2000/svg" xmlns:xlink="http://www.w3.org/1999/xlink">
    <!-- Generator: Sketch 63.1 (92452) - https://sketch.com -->
    <desc>Created with Sketch.</desc>
    <g id="Page-1" stroke="none" stroke-width="1" fill="none" fill-rule="evenodd">
        <g id="Home-dark-Copy" transform="translate(-29.000000, -62.000000)" fill="#A9ACD3" fill-rule="nonzero">
            <g id="palettes" transform="translate(29.000000, 62.000000)">
                <path d="M13.962766,5.46382979 C13.0690057,4.56845915 11.7384319,4.27001269 10.5478723,4.69787234 C11.0364412,3.33817638 10.5770721,1.81894171 9.41697632,0.957750411 C8.25688057,0.0965591162 6.66971518,0.0965591162 5.50961943,0.957750411 C4.34952368,1.81894171 3.89015458,3.33817638 4.3787234,4.69787234 C3.14982802,4.25807045 1.7771043,4.59009383 0.88504084,5.54289618 C-0.00702262466,6.49569854 -0.248035939,7.88728846 0.271644274,9.08459462 C0.791324487,10.2819008 1.97243594,11.0562299 3.27765957,11.0553191 C3.65282287,11.0536933 4.02503912,10.98896 4.3787234,10.8638298 C3.88616646,12.2244195 4.34505115,13.7469881 5.50741548,14.6088035 C6.66977981,15.4706189 8.25999344,15.4673197 9.41877178,14.6006887 C10.5775501,13.7340576 11.0301132,12.209598 10.5319149,10.8510638 C11.9717757,11.3671943 13.5771353,10.8177386 14.3987699,9.52758111 C15.2204046,8.23742365 15.0393936,6.55032078 13.962766,5.46382979 Z M5.59468085,1.72978723 C6.26170331,1.06276478 7.23390972,0.802262853 8.14507934,1.04641002 C9.05624897,1.29055718 9.76795346,2.00226167 10.0121006,2.91343129 C10.2562478,3.82460092 9.99574586,4.79680733 9.3287234,5.46382979 L7.46170213,7.34042553 L5.59468085,5.47340426 L5.59468085,5.47340426 C5.09712019,4.97756824 4.81744808,4.30403433 4.81744808,3.60159574 C4.81744808,2.89915716 5.09712019,2.22562325 5.59468085,1.72978723 L5.59468085,1.72978723 Z M1.4106383,9.64787234 C0.378629614,8.61762627 0.377200735,6.94583847 1.40744681,5.91382979 C2.43769288,4.8818211 4.10948068,4.88039222 5.14148936,5.9106383 L5.14148936,5.9106383 L7.0212766,7.78085106 L5.15744681,9.64787234 C4.66106515,10.1456261 3.9870031,10.4253768 3.28404255,10.4253768 C2.58108201,10.4253768 1.90701996,10.1456261 1.4106383,9.64787234 L1.4106383,9.64787234 Z M9.3287234,13.8319149 C8.66170095,14.4989374 7.68949453,14.7594393 6.77832491,14.5152921 C5.86715529,14.2711449 5.1554508,13.5594405 4.91130363,12.6482708 C4.66715647,11.7371012 4.92765839,10.7648948 5.59468085,10.0978723 L7.46170213,8.23085106 L7.46170213,8.23085106 L9.3287234,10.0978723 L9.3287234,10.0978723 C10.356891,11.130224 10.356891,12.7995633 9.3287234,13.8319149 L9.3287234,13.8319149 Z M13.512766,9.64787234 C12.4807855,10.6739227 10.8138954,10.6739227 9.78191489,9.64787234 L9.78191489,9.64787234 L7.91489362,7.78085106 L9.78191489,5.91382979 C10.8130423,4.88270243 12.4848301,4.88270245 13.5159574,5.91382982 C14.5470848,6.94495718 14.5470848,8.61674496 13.5159574,9.64787234 L13.512766,9.64787234 Z" id="Shape"></path>
            </g>
        </g>
    </g>
</svg>
